src/assets/img/svg/api.svg

<?xml version="1.0" encoding="UTF-8"?>
<svg width="116px" height="116px" viewBox="0 0 116 116" version="1.1" xmlns="http://www.w3.org/2000/svg" xmlns:xlink="http://www.w3.org/1999/xlink">
    <!-- Generator: Sketch 61.2 (89653) - https://sketch.com -->
    <title>icon-api-big</title>
    <desc>Created with Sketch.</desc>
    <g id="icon-api-big" stroke="none" stroke-width="1" fill="none" fill-rule="evenodd">
        <g id="Group-15" transform="translate(2.000000, 2.000000)">
            <circle id="Oval" stroke="#AF53FF" stroke-width="2" fill-opacity="0" fill="#FFFFFF" cx="56" cy="56" r="55"></circle>
            <path d="M55.9897701,104 L55.9897701,102 C30.9191609,102 10.5329183,81.9438427 10.0004444,57.0009303 L8,57.0009303 C8.53285362,83.0485315 29.814573,104 55.9897701,104 Z M55.9897701,8 L55.9897701,10 C81.3948686,10 101.98977,30.5949015 101.98977,56 C101.98977,56.3344893 101.9862,56.6681447 101.979096,57.0009826 L103.97954,57.0009826 C103.986349,56.6681428 103.98977,56.3344709 103.98977,56 C103.98977,29.490332 82.4994381,8 55.9897701,8 Z" id="Shape" fill="#AF53FF"></path>
            <path d="M33.715,68 L36.235,62.39 L47.935,62.39 L50.455,68 L52.795,68 L43.195,47 L41.005,47 L31.405,68 L33.715,68 Z M47.125,60.59 L37.045,60.59 L42.085,49.31 L47.125,60.59 Z M57.995,68 L57.995,61.37 L63.635,61.37 C66.315,61.37 68.415,60.735 69.935,59.465 C71.455,58.195 72.215,56.44 72.215,54.2 C72.215,51.96 71.455,50.2 69.935,48.92 C68.415,47.64 66.315,47 63.635,47 L55.775,47 L55.775,68 L57.995,68 Z M57.995,59.42 L57.995,48.92 L63.575,48.92 C65.655,48.92 67.245,49.375 68.345,50.285 C69.445,51.195 69.995,52.5 69.995,54.2 C69.995,55.86 69.445,57.145 68.345,58.055 C67.245,58.965 65.655,59.42 63.575,59.42 L57.995,59.42 Z M78.735,68 L78.735,47 L76.515,47 L76.515,68 L78.735,68 Z" id="API" fill="#AF53FF" fill-rule="nonzero"></path>
        </g>
    </g>
</svg>

<svg xmlns="http://www.w3.org/2000/svg" width="116" height="116" viewBox="0 0 116 116">
    <g fill="none" fill-rule="evenodd" transform="translate(2 2)">
        <circle cx="56" cy="56" r="55" fill="#FFF" fill-opacity="0" stroke="#AF53FF" stroke-width="2"/>
        <path fill="#FFF" fill-opacity="0" stroke="#AF53FF" stroke-width="3" d="M55.49 103l.5-.5c-.338 0-.675-.004-1.011-.01l-.49-.49v.476c-24.12-.765-43.66-19.92-44.933-43.975H10l-.466-.457c-.016-.357-.027-.715-.034-1.074l-.52.531-.48-.468c.007.31.017.62.03.927L8 58.5h.554c1.277 24.613 21.265 44.21 45.936 44.977V104l.51-.51c.33.007.659.01.99.01l-.5-.5zm2-93.476c24.822.786 44.735 21.026 44.997 45.977h-.508v1.5l1.5.032v-.042l.5.01v-1.5h-.492c-.262-25.503-20.623-46.19-45.997-46.978V8l-.51.51c-.33-.007-.66-.01-.99-.01l.5.5-.5.5c.338 0 .674.004 1.01.01l.49.49v-.476z"/>
        <path fill="#AF53FF" fill-rule="nonzero" d="M33.715 68l2.52-5.61h11.7l2.52 5.61h2.34l-9.6-21h-2.19l-9.6 21h2.31zm13.41-7.41h-10.08l5.04-11.28 5.04 11.28zM57.995 68v-6.63h5.64c2.68 0 4.78-.635 6.3-1.905 1.52-1.27 2.28-3.025 2.28-5.265 0-2.24-.76-4-2.28-5.28-1.52-1.28-3.62-1.92-6.3-1.92h-7.86v21h2.22zm0-8.58v-10.5h5.58c2.08 0 3.67.455 4.77 1.365 1.1.91 1.65 2.215 1.65 3.915 0 1.66-.55 2.945-1.65 3.855-1.1.91-2.69 1.365-4.77 1.365h-5.58zM78.735 68V47h-2.22v21h2.22z"/>
    </g>
</svg>
